offer/images/tiny/target.svg

<svg height="45" viewBox="0 0 45 45" width="45" xmlns="http://www.w3.org/2000/svg"><g fill="none" fill-rule="evenodd"><path d="m20.7542169 22.9771084c-.346988-.1734939-.7265061-.2602409-1.1168675-.2602409-1.4421687 0-2.6024096 1.1602409-2.6024096 2.6024096s1.1602409 2.6024096 2.6024096 2.6024096 2.6024096-1.1602409 2.6024096-2.6024096c0-.3903614-.086747-.7698795-.2602409-1.1168675l-1.7349398 1.7349398c-.0433735.0433735-.086747.086747-.1409638.1192771l-.4662651.4662651-1.3662651-1.0518073.7481928-.7481927z"/><path d="m28.453012 33.1590361c-4.326506 4.933735-11.8301204 5.4325302-16.7746987 1.1060241-4.93373499-4.326506-5.43253017-11.8301204-1.1060241-16.7746988 4.326506-4.9337349 11.8301204-5.4325301 16.7746988-1.1060241l3.4698795-3.4698795-.0542169-1.4638554c-3.1771084-2.54819276-7.1349398-3.94698794-11.2120482-3.93614457-9.8566265.02168675-17.83734939 8.02409637-17.82650601 17.88072287.01084337 9.8566265 8.01325301 17.8373494 17.88072291 17.826506 9.8674699-.0108433 17.8373494-8.013253 17.826506-17.8807228-.0108434-4.0554217-1.4096386-7.9915663-3.9686747-11.146988l-1.4313253-.0542169-3.4698795 3.4698796c3.8277108 4.5 3.7843373 11.1144578-.1084338 15.5493975z"/><path d="m23.2481928 27.7156627c-1.3228916 1.9951807-4.0120482 2.5481927-6.0072289 1.2253012-1.9951808-1.3228916-2.5481928-4.0120482-1.2253012-6.007229 1.3228915-1.9951807 4.0120481-2.5481927 6.0072289-1.2253012l4.1096385-4.1096385c-3.773494-3.1771085-9.2819277-3.1771085-13.0554217 0-4.2831325 3.6-4.82530117 9.9975903-1.2253012 14.2807229 3.6 4.2831325 9.9975904 4.8253012 14.2807229 1.2253012 4.2831326-3.6 4.8253012-9.9975904 1.2253012-14.2698795l-.9759036.9759036-3.1337349 3.1337349c.9650602 1.4313253.9650602 3.3180723 0 4.7710844z"/><g fill-rule="nonzero"><path d="m26.1325301 33.0939759c-4.2831325 3.6-10.6698795 3.0578313-14.2807229-1.2253012-3.59999997-4.2831325-3.0578313-10.6698795 1.2253012-14.2807229 3.773494-3.1771084 9.2819277-3.1771084 13.0554217 0l-4.1096385 4.1096386c-1.9951808-1.3228916-4.6843374-.7698796-6.0072289 1.2253012-1.3228916 1.9951807-.7698796 4.6843373 1.2253012 6.0072289 1.9951807 1.3228915 4.6843373.7698795 6.0072289-1.2253012.9650602-1.4530121.9650602-3.3397591 0-4.7927711l3.1337349-3.1337349-6.2783132 6.2566265c.0542168-.0325302.0975903-.0650603.1409638-.1192771l1.7349398-1.7349398c.1734939.3469879.2602409.726506.2602409 1.1168675 0 1.4421686-1.1602409 2.6024096-2.6024096 2.6024096s-2.6024096-1.160241-2.6024096-2.6024096c0-1.4421687 1.1602409-2.6024097 2.6024096-2.6024097.3903614 0 .7698795.086747 1.1168675.260241l-1.7349398 1.7349397 8.3277109-8.3277108c-4.933735-4.326506-12.4481928-3.8277108-16.7746988 1.1060241-4.31566269 4.9662651-3.82771089 12.4698795 1.1168674 16.7963855 4.933735 4.3265061 12.4481928 3.8277109 16.7746988-1.1060241 3.8819277-4.4349397 3.9361446-11.0493975.1084338-15.5385542l3.4698795-3.4698795-4.673494 4.6626506c3.6 4.2831325 3.046988 10.6698795-1.2361446 14.2807229z" fill="#828282"/><path d="m32.0313253 14.1506024 1.4313253.0542169c2.5481928 3.1554217 3.946988 7.0915662 3.9686747 11.1469879.0108434 9.8566265-7.9698795 17.8590362-17.826506 17.8807229-9.85662653.0216868-17.86987954-7.9698795-17.88072291-17.8373494-.01084338-9.8674699 7.96987951-17.85903612 17.82650601-17.8698795 4.0771084 0 8.0349398 1.38795181 11.2120482 3.9361446l-.086747-2.23373496c-8.9024096-6.12650602-21.09036143-3.88192771-27.21686746 5.00963856-6.12650602 8.8915663-3.89277108 21.0903614 5.00963856 27.2168675 8.9024096 6.126506 21.0903614 3.8819277 27.2168675-5.0096386 4.6084337-6.6903614 4.6084337-15.5168675 0-22.2072289z" fill="#828282"/><path d="m40.0337349 4.92289157-.1409638-4.07710844c-.0108434-.47710843-.4120482-.8566265-.9-.83493976-.2168675.01084338-.433735.09759037-.5855422.26024097l-7.4819277 7.44939759c-.173494.17349397-.260241.40120482-.2493976.63975903v.86746988l.086747 2.23373496s.0108434.0108434.0108434.0108434l.0433735 1.453012-3.4698795 3.4698795-8.3277109 8.3277109c-.3361446.3361445-.3361446.8783132 0 1.2144578.2927711.2927711.7481928.3253012 1.0843374.1192771l6.2783132-6.2566265.9759036-.9759036 4.673494-4.6626506 3.6542169.086747h.8674698c.2277109 0 .4554217-.086747.6180723-.2493976l7.4927711-7.4927711c.3361446-.33614458.346988-.88915663.0108434-1.22530121-.1518072-.1626506-.3686747-.24939759-.5855422-.26024096zm-1.7674698-2.04939759.0975903 2.88433735c0 .47710843.3903615.86746987.8674699.86746987l2.8843374.09759037-5.8445784 5.77951803-3.6975903-.1192771-.1192771-3.69759033z" fill="#a03ee5"/></g></g></svg>

<?xml version="1.0" encoding="UTF-8"?>
<svg width="45px" height="45px" viewBox="0 0 45 45" version="1.1" xmlns="http://www.w3.org/2000/svg" xmlns:xlink="http://www.w3.org/1999/xlink">
    <!-- Generator: Sketch 52.2 (67145) - http://www.bohemiancoding.com/sketch -->
    <title>objective</title>
    <desc>Created with Sketch.</desc>
    <g id="Page-1" stroke="none" stroke-width="1" fill="none" fill-rule="evenodd">
        <g id="home" transform="translate(-683.000000, -1624.000000)">
            <g id="Group-5-Copy-3" transform="translate(665.000000, 1624.000000)">
                <g id="objective" transform="translate(18.000000, 0.000000)">
                    <path d="M20.7542169,22.9771084 C20.4072289,22.8036145 20.0277108,22.7168675 19.6373494,22.7168675 C18.1951807,22.7168675 17.0349398,23.8771084 17.0349398,25.3192771 C17.0349398,26.7614458 18.1951807,27.9216867 19.6373494,27.9216867 C21.0795181,27.9216867 22.239759,26.7614458 22.239759,25.3192771 C22.239759,24.9289157 22.153012,24.5493976 21.9795181,24.2024096 L20.2445783,25.9373494 C20.2012048,25.9807229 20.1578313,26.0240964 20.1036145,26.0566265 L19.6373494,26.5228916 L18.2710843,25.4710843 L19.0192771,24.7228916 C19.0192771,24.7228916 19.0192771,24.7228916 19.0192771,24.7228916 L20.7542169,22.9771084 Z" id="Shape"></path>
                    <path d="M28.453012,33.1590361 C24.126506,38.0927711 16.6228916,38.5915663 11.6783133,34.2650602 C6.74457831,29.9385542 6.24578313,22.4349398 10.5722892,17.4903614 C14.8987952,12.5566265 22.4024096,12.0578313 27.346988,16.3843373 L30.8168675,12.9144578 L30.7626506,11.4506024 C27.5855422,8.90240964 23.6277108,7.50361446 19.5506024,7.51445783 C9.6939759,7.53614458 1.71325301,15.5385542 1.72409639,25.3951807 C1.73493976,35.2518072 9.7373494,43.2325301 19.6048193,43.2216867 C29.4722892,43.2108434 37.4421687,35.2084337 37.4313253,25.3409639 C37.4204819,21.2855422 36.0216867,17.3493976 33.4626506,14.1939759 L32.0313253,14.139759 L28.5614458,17.6096386 C32.3891566,22.1096386 32.3457831,28.7240964 28.453012,33.1590361 Z" id="Shape"></path>
                    <path d="M23.2481928,27.7156627 C21.9253012,29.7108434 19.2361446,30.2638554 17.2409639,28.9409639 C15.2457831,27.6180723 14.6927711,24.9289157 16.0156627,22.9337349 C17.3385542,20.9385542 20.0277108,20.3855422 22.0228916,21.7084337 L26.1325301,17.5987952 C22.3590361,14.4216867 16.8506024,14.4216867 13.0771084,17.5987952 C8.7939759,21.1987952 8.25180723,27.5963855 11.8518072,31.8795181 C15.4518072,36.1626506 21.8493976,36.7048193 26.1325301,33.1048193 C30.4156627,29.5048193 30.9578313,23.1072289 27.3578313,18.8349398 L26.3819277,19.8108434 L23.2481928,22.9445783 C24.213253,24.3759036 24.213253,26.2626506 23.2481928,27.7156627 Z" id="Shape"></path>
                    <path d="M26.1325301,33.0939759 C21.8493976,36.6939759 15.4626506,36.1518072 11.8518072,31.8686747 C8.25180723,27.5855422 8.7939759,21.1987952 13.0771084,17.5879518 C16.8506024,14.4108434 22.3590361,14.4108434 26.1325301,17.5879518 L22.0228916,21.6975904 C20.0277108,20.3746988 17.3385542,20.9277108 16.0156627,22.9228916 C14.6927711,24.9180723 15.2457831,27.6072289 17.2409639,28.9301205 C19.2361446,30.253012 21.9253012,29.7 23.2481928,27.7048193 C24.213253,26.2518072 24.213253,24.3650602 23.2481928,22.9120482 L26.3819277,19.7783133 L20.1036145,26.0349398 C20.1578313,26.0024096 20.2012048,25.9698795 20.2445783,25.9156627 L21.9795181,24.1807229 C22.153012,24.5277108 22.239759,24.9072289 22.239759,25.2975904 C22.239759,26.739759 21.0795181,27.9 19.6373494,27.9 C18.1951807,27.9 17.0349398,26.739759 17.0349398,25.2975904 C17.0349398,23.8554217 18.1951807,22.6951807 19.6373494,22.6951807 C20.0277108,22.6951807 20.4072289,22.7819277 20.7542169,22.9554217 L19.0192771,24.6903614 C19.0192771,24.6903614 19.0192771,24.6903614 19.0192771,24.6903614 L27.346988,16.3626506 C22.413253,12.0361446 14.8987952,12.5349398 10.5722892,17.4686747 C6.25662651,22.4349398 6.74457831,29.9385542 11.6891566,34.2650602 C16.6228916,38.5915663 24.1373494,38.0927711 28.4638554,33.1590361 C32.3457831,28.7240964 32.4,22.1096386 28.5722892,17.6204819 L32.0421687,14.1506024 L27.3686747,18.813253 C30.9686747,23.0963855 30.4156627,29.4831325 26.1325301,33.0939759 Z" id="Shape" fill="#828282" fill-rule="nonzero"></path>
                    <path d="M32.0313253,14.1506024 L33.4626506,14.2048193 C36.0108434,17.360241 37.4096386,21.2963855 37.4313253,25.3518072 C37.4421687,35.2084337 29.4614458,43.2108434 19.6048193,43.2325301 C9.74819277,43.2542169 1.73493976,35.2626506 1.72409639,25.3951807 C1.71325301,15.5277108 9.6939759,7.53614458 19.5506024,7.5253012 C23.6277108,7.5253012 27.5855422,8.91325301 30.7626506,11.4614458 L30.6759036,9.22771084 C21.773494,3.10120482 9.58554217,5.34578313 3.45903614,14.2373494 C-2.66746988,23.1289157 -0.43373494,35.3277108 8.4686747,41.4542169 C17.3710843,47.5807229 29.5590361,45.3361446 35.6855422,36.4445783 C40.2939759,29.7542169 40.2939759,20.9277108 35.6855422,14.2373494 L32.0313253,14.1506024 Z" id="Shape" fill="#828282" fill-rule="nonzero"></path>
                    <path d="M40.0337349,4.92289157 L39.8927711,0.845783133 C39.8819277,0.368674699 39.4807229,-0.0108433735 38.9927711,0.0108433735 C38.7759036,0.021686747 38.5590361,0.108433735 38.4072289,0.271084337 L30.9253012,7.72048193 C30.7518072,7.8939759 30.6650602,8.12168675 30.6759036,8.36024096 L30.6759036,9.22771084 L30.7626506,11.4614458 C30.7626506,11.4614458 30.773494,11.4722892 30.773494,11.4722892 L30.8168675,12.9253012 L27.346988,16.3951807 C27.346988,16.3951807 27.346988,16.3951807 27.346988,16.3951807 L19.0192771,24.7228916 C18.6831325,25.0590361 18.6831325,25.6012048 19.0192771,25.9373494 C19.3120482,26.2301205 19.7674699,26.2626506 20.1036145,26.0566265 L26.3819277,19.8 L27.3578313,18.8240964 C27.3578313,18.8240964 27.3578313,18.8240964 27.3578313,18.8240964 L32.0313253,14.1614458 L35.6855422,14.2481928 L36.553012,14.2481928 C36.7807229,14.2481928 37.0084337,14.1614458 37.1710843,13.9987952 L44.6638554,6.5060241 C45,6.16987952 45.0108434,5.61686747 44.6746988,5.28072289 C44.5228916,5.11807229 44.3060241,5.0313253 44.0891566,5.02048193 L40.0337349,4.92289157 Z M38.2662651,2.87349398 L38.3638554,5.75783133 C38.3638554,6.23493976 38.7542169,6.6253012 39.2313253,6.6253012 L42.1156627,6.72289157 L36.2710843,12.5024096 L32.573494,12.3831325 L32.4542169,8.68554217 L38.2662651,2.87349398 Z" id="Shape" fill="#A03EE5" fill-rule="nonzero"></path>
                </g>
            </g>
        </g>
    </g>
</svg>
